X:231
T:Sweeney's Wheel
C:Jackie Daly
S:Théo Baumard
Z:robin.beech@mcgill.ca
R:reel
M:4/4
L:1/8
K:D
B2dB FBdB | GBdB cdec | B2dB FBdB |1 cBAB cdec  :|2 cBAB cdef |:
geee geaf | geee g2ga | geaf gfed |1 cdef g2gf :|2 cdef g2ga |:
baa/a/a fdd2 | cdef g2ga | baa/a/a fddB |1 ABcd efga :|2 ABcd efge |:
fdd2 Add2 | fdd2 cdeg | fdd2 Add2 |1 cBAB cdeg :|2 cBAB cdec |:
dff2 aff2 | dffd cdec | dff2 aff2 | cBAB cdec :|
